P3
# Written by Real-Time Camera ISP
8 8
255
255 128 0  255 128 0  255 128 0  255 128 0  255 128 0  255 128 0  255 128 0  255 128 0
255 128 0  255 128 0  255 128 0  255 128 0  255 128 0  255 128 0  255 128 0  255 128 0
255 128 0  255 128 0  255 128 0  255 128 0  255 128 0  255 128 0  255 128 0  255 128 0
255 128 0  255 128 0  255 128 0  255 128 0  255 128 0  255 128 0  255 128 0  255 128 0
255 128 0  255 128 0  255 128 0  255 128 0  255 128 0  255 128 0  255 128 0  255 128 0
255 128 0  255 128 0  255 128 0  255 128 0  255 128 0  255 128 0  255 128 0  255 128 0
255 128 0  255 128 0  255 128 0  255 128 0  255 128 0  255 128 0  255 128 0  255 128 0
255 128 0  255 128 0  255 128 0  255 128 0  255 128 0  255 128 0  255 128 0  255 128 0
