P3
8 8
255
64 0 0
64 36 0
64 72 0
64 109 0
64 145 0
64 182 0
64 218 0
64 255 0
64 0 36
64 36 36
64 72 36
64 109 36
64 145 36
64 182 36
64 218 36
64 255 36
64 0 72
64 36 72
64 72 72
64 109 72
64 145 72
64 182 72
64 218 72
64 255 72
64 0 109
64 36 109
64 72 109
64 109 109
64 145 109
64 182 109
64 218 109
64 255 109
64 0 145
64 36 145
64 72 145
64 109 145
64 145 145
64 182 145
64 218 145
64 255 145
64 0 182
64 36 182
64 72 182
64 109 182
64 145 182
64 182 182
64 218 182
64 255 182
64 0 218
64 36 218
64 72 218
64 109 218
64 145 218
64 182 218
64 218 218
64 255 218
64 0 255
64 36 255
64 72 255
64 109 255
64 145 255
64 182 255
64 218 255
64 255 255
