P3
8 8
255
255 0 0
255 64 0
255 128 0
255 192 0
255 255 0
192 255 0
128 255 0
64 255 0
255 0 64
255 64 64
255 128 64
255 192 64
255 255 64
192 255 64
128 255 64
64 255 64
255 0 128
255 64 128
255 128 128
255 192 128
255 255 128
192 255 128
128 255 128
64 255 128
255 0 192
255 64 192
255 128 192
255 192 192
255 255 192
192 255 192
128 255 192
64 255 192
255 0 255
192 0 255
128 0 255
64 0 255
0 0 255
0 64 255
0 128 255
0 192 255
255 255 255
224 224 224
192 192 192
160 160 160
128 128 128
96 96 96
64 64 64
32 32 32
0 0 0
32 32 32
64 64 64
96 96 96
128 128 128
160 160 160
192 192 192
224 224 224
255 255 255
255 128 0
255 0 128
128 0 255
0 128 255
0 255 128
128 255 0
0 255 0
